X:1
T:Che dolce piu che piu
T:Lodovico Agostini
T:Che dolce piu che piu
C:Lodovico Agostini
%%score [ 1 2 3 4 ]
L:1/8
Q:1/4=144
M:4/2
K:C
V:1 alto1 nm="Soprano" snm="S"
V:2 alto nm="Alto" snm="A"
V:3 tenor nm="Tenor" snm="T"
V:4 bass nm="Bass" snm="B"
V:1
 z16 | A8 ^G6 G2 | A4 A4 c6 B2 | A2 A2 G4 G4 z2 A2 | A4 G4 G4 A2 _B2- | B2 A2 G2 G2 F4 E4 | %6
w: |Che dol- ce|piu che piu gio-|con- do sta- to, Sa-|ria di quel d'un a-|* mo- ro- so co- re,|
 z4 E4 ^F6 F2 | A2 B2 c4 c2 d4 B2 | c4 B4 z2 G2 F4 | F4 E8 G4 | G6 G2 G4 F4 | E8 E8 | z4 ^F8 A4 | %13
w: Che vi- ver|piu fe- li- ce e piu be-|a- to, Che ri-|tro- var- si in|ser- vi- ta d'a-|mo- re,|Se non|
 A6 A2 A4 B4- | B2 B2 c2 A2 A4 G4 | c8 B4 B4 | A6 A2 _B8 | z4 A4 c4 B2 A2- | A2 GF G4 A8 | %19
w: fos- se l'huom sem-|* pre sti- mu- la- to,|Da quel sos-|pet- to- rio|da quel ti- mo-|* * * * re,|
[M:3/2][Q:1/4=216] A4 A4 A4 | G4 F4 G4 | E6 E2 E4 | F4 G8 | A8 z4 | A4 A4 A4 | G8 G4 | F6 F2 A4 | %27
w: Da quel mar-|tir _ da|quel- la fre-|ne- si-|a,|Da quel- la|rab- bia|det- ta Ge-|
 A4 A4 ^G4 | A8 z4 | A4 A4 A4 | G8 G4 | F6 F2 A4 | A4 A4 ^G4 | A12 | z12 | z12 | z12 | z12 | z12 | %39
w: lo- si- *|a,|Da quel- la|rab- bia|det- ta Ge-|lo- si- *|a.||||||
 z12 | z12 | z12 | z12 | z12 | z12 | z12 |] %46
w: |||||||
V:2
 z16 | E8 E6 E2 | E4 ^F4 G6 G2 | E2 F2 D4 E4 z2 F2 | F4 D4 E4 ^F2 G2- | G2 D2 D2 E2 D4 B,4 | %6
w: |Che dol- ce|piu che piu gio-|con- do sta- to, Sa-|ria di quel d'un a-|* mo- ro- so co- re,|
 z4 ^C4 D6 D2 | F4 E2 F4 ^F2 G2 G2 | G4 G4 z2 E2 D4 | C4 C8 D4 | E6 E2 E4 D4 | B,8 ^C8 | z4 D8 F4 | %13
w: Che vi- ver|piu fe- li- ce e piu be-|a- to, Che ri-|tro- var- si in|ser- vi- ta d'a-|mo- re,|Se non|
 E6 E2 ^F4 G4- | G2 G2 G2 F2 F4 E4 | G8 G4 D4 | F6 F2 F8 | z4 F4 G4 F4 | E8 E8 |[M:3/2] F4 F4 E4 | %20
w: fos- se l'huom sem-|* pre sti- mu- la- to,|Da quel sos-|pet- to- rio|da quel ti-|mo- re,|Da quel mar-|
 D8 D4 | ^C6 C2 C4 | D4 E8 | F8 z4 | E4 E4 F4 | D8 E4 | C6 D2 F4 | F4 E8 | ^C8 z4 | E4 E4 F4 | %30
w: tir da|quel- la fre-|ne- si-|a,|Da quel- la|rab- bia|det- ta Ge-|lo- si-|a,|Da quel- la|
 D8 E4 | C6 C2 F4 | F4 E8 | ^C12 | z12 | z12 | z12 | z12 | z12 | z12 | z12 | z12 | z12 | z12 | %44
w: rab- bia|det- ta Ge-|lo- si-|a.|||||||||||
 z12 | z12 |] %46
w: ||
V:3
 z16 | C8 B,6 B,2 | ^C4 D4 E6 D2 | C2 C2 C2 B,2 C4 z2 C2 | C4 B,4 B,4 D2 D2- | %5
w: |Che dol- ce|piu che piu gio-|con- do sta- * to, Sa-|ria di quel d'un a-|
 D2 A,2 B,2 C2 A,4 ^G,4 | z4 A,4 A,6 A,2 | D4 G,2 A,4 A,2 B,2 D2 | E4 D4 z2 C2 A,4 | A,4 G,8 B,4 | %10
w: * mo- ro- so co- re,|Che vi- ver|piu fe- li- ce e piu be-|a- to, Che ri-|tro- var- si in|
 B,6 B,2 C4 A,2 A,2- | A,2 ^G,^F, G,4 A,8 | z4 A,8 D4 | ^C6 C2 D4 D4- | D2 D2 E2 D2 C4 C4 | %15
w: ser- vi- ta d'a- mo-|* * * * re,|Se non|fos- se l'huom sem-|* pre sti- mu- la- to,|
 E8 E4 B,4 | C6 C2 D8 | z4 C4 E4 D4 | B,8 ^C8 |[M:3/2] D4 D4 C4 | _B,8 B,4 | A,6 A,2 A,4 | A,4 C8 | %23
w: Da quel sos-|pet- to- rio|da quel ti-|mo- re,|Da quel mar-|tir da|quel- la fre-|ne- si-|
 C8 z4 | ^C4 C4 D4 | B,8 C4 | A,6 A,2 C4 | D4 B,8 | A,8 z4 | ^C4 C4 D4 | B,8 C4 | A,6 A,2 C4 | %32
w: a,|Da quel- la|rab- bia|det- ta Ge-|lo- si-|a,|Da quel- la|rab- bia|det- ta Ge-|
 D4 B,8 | A,12 | z12 | z12 | z12 | z12 | z12 | z12 | z12 | z12 | z12 | z12 | z12 | z12 |] %46
w: lo- si-|a.|||||||||||||
V:4
 z16 | A,,8 E,6 E,2 | A,,4 D,4 C,6 G,2 | A,2 F,2 G,4 C,4 z2 F,2 | F,4 G,4 E,4 D,2 G,2- | %5
w: |Che dol- ce|piu che piu gio-|con- do sta- to, Sa-|ria di quel d'un a-|
 G,2 ^F,2 G,2 C,2 D,4 E,4 | z4 A,,4 D,6 D,2 | D,4 C,2 F,4 D,2 G,2 G,2 | C,4 G,4 z2 C,2 D,4 | %9
w: * mo- ro- so co- re,|Che vi- ver|piu fe- li- ce e piu be-|a- to, Che ri-|
 F,4 C,8 G,4 | E,6 E,2 C,4 D,4 | E,8 A,,8 | z4 D,8 D,4 | A,,6 A,,2 D,4 G,4- | %14
w: tro- var- si in|ser- vi- ta d'a-|mo- re,|Se non|fos- se l'huom sem-|
 G,2 G,2 C,2 D,2 F,4 C,4 | C,8 E,4 G,4 | F,6 F,2 _B,,8 | z4 F,4 C,4 D,4 | E,8 A,,8 | %19
w: * pre sti- mu- la- to,|Da quel sos-|pet- to- rio|da quel ti-|mo- re,|
[M:3/2] D,4 D,4 A,,4 | _B,,8 G,,4 | A,,6 A,,2 A,,4 | D,4 C,8 | F,8 z4 | A,4 A,4 D,4 | G,8 E,4 | %26
w: Da quel mar-|tir da|quel- la fre-|ne- si-|a,|Da quel- la|rab- bia|
 F,6 F,2 F,4 | D,4 E,8 | A,,8 z4 | A,4 A,4 D,4 | G,8 E,4 | F,6 F,2 F,4 | D,4 E,8 | A,,12 | z12 | %35
w: det- ta Ge-|lo- si-|a,|Da quel- la|rab- bia|det- ta Ge-|lo- si-|a.||
 z12 | z12 | z12 | z12 | z12 | z12 | z12 | z12 | z12 | z12 | z12 |] %46
w: |||||||||||

